SVG_Azure_All/App Service Backup.svg

<?xml version="1.0" encoding="UTF-8" standalone="no"?>
<!DOCTYPE svg PUBLIC "-//W3C//DTD SVG 1.1//EN" "http://www.w3.org/Graphics/SVG/1.1/DTD/svg11.dtd">
<!-- Generated by Microsoft Visio, SVG Export App Service Backup.svg Page-1 -->
<svg xmlns="http://www.w3.org/2000/svg" xmlns:xlink="http://www.w3.org/1999/xlink" xmlns:ev="http://www.w3.org/2001/xml-events"
		width="1.73185in" height="1.61403in" viewBox="0 0 124.693 116.21" xml:space="preserve" color-interpolation-filters="sRGB"
		class="st4">
	<style type="text/css">
	<![CDATA[
		.st1 {fill:url(#grad0-6);stroke:none;stroke-linecap:butt;stroke-width:34}
		.st2 {fill:#ffffff;stroke:none;stroke-linecap:butt;stroke-width:34}
		.st3 {fill:url(#grad0-12);stroke:none;stroke-linecap:butt;stroke-width:34}
		.st4 {fill:none;fill-rule:evenodd;font-size:12px;overflow:visible;stroke-linecap:square;stroke-miterlimit:3}
	]]>
	</style>

	<defs id="Patterns_And_Gradients">
		<linearGradient id="grad0-6" x1="0" y1="0" x2="1" y2="0" gradientTransform="rotate(-90 0.5 0.5)">
			<stop offset="0" stop-color="#0078d4" stop-opacity="1"/>
			<stop offset="0.16" stop-color="#1380da" stop-opacity="1"/>
			<stop offset="0.53" stop-color="#3c91e5" stop-opacity="1"/>
			<stop offset="0.82" stop-color="#559cec" stop-opacity="1"/>
			<stop offset="1" stop-color="#5ea0ef" stop-opacity="1"/>
		</linearGradient>
		<linearGradient id="grad0-12" x1="0" y1="0" x2="1" y2="0" gradientTransform="rotate(-90 0.5 0.5)">
			<stop offset="0" stop-color="#198ab3" stop-opacity="1"/>
			<stop offset="0.13" stop-color="#21a0c7" stop-opacity="1"/>
			<stop offset="0.31" stop-color="#28b7db" stop-opacity="1"/>
			<stop offset="0.5" stop-color="#2ec7ea" stop-opacity="1"/>
			<stop offset="0.72" stop-color="#31d1f2" stop-opacity="1"/>
			<stop offset="1" stop-color="#32d4f5" stop-opacity="1"/>
		</linearGradient>
	</defs>
	<g>
		<title>Page-1</title>
		<g id="group9888-1" transform="translate(34,-34.0157)">
			<title>App Service Backup</title>
			<g id="group9889-2">
				<title>Sheet.9889</title>
				<g id="shape9890-3" transform="translate(13.4173,-17.8891)">
					<title>Sheet.9890</title>
					<path d="M43.28 106.64 A9.73228 9.53428 -180 0 0 34.83 97.39 A12.252 12.0027 -180 0 0 22.24 85.91 A12.5984 12.3421
								 -180 0 0 10.2 94.02 A11.5906 11.3547 -180 0 0 0 104.98 A11.7795 11.5399 -180 0 0 12.19 116.21 L33.51
								 116.21 A9.85827 9.6577 -180 0 0 43.28 106.64 Z" class="st1"/>
				</g>
				<g id="shape9891-7" transform="translate(23.2126,-21.962)">
					<title>Sheet.9891</title>
					<path d="M22.11 102.45 L16.35 96.96 C15.72 96.34 15.18 96.56 15.18 97.51 L15.18 99.98 a0.692913 0.678816 0 0
								 1 -0.724409 0.678816 C10.74 100.66 0.38 101.62 0 115.5 a0.724409 0.709671 -180 0 0 0.724409 0.709671
								 L4.41 116.21 a0.724409 0.709671 -180 0 0 0.724409 -0.771382 A8.69291 8.51605 0 0 1 14.58 105.16
								 a0.724409 0.709671 0 0 1 0.724409 0.709671 L15.31 108.16 C15.31 109.3 15.69 109.48 16.47 108.71
								 L22.11 103.62 a0.724409 0.709671 -180 0 0 -1.06581E-14 -1.1725 Z" class="st2"/>
				</g>
				<g id="shape9892-9">
					<title>Sheet.9892</title>
					<path d="M44.47 106.53 A9.98425 9.78112 -180 0 0 35.81 97.12 A12.5984 12.3421 -180 0 0 22.83 85.3 A12.9134 12.6507
								 -180 0 0 10.49 93.57 A11.9055 11.6633 -180 0 0 -0 104.8 A12.0945 11.8484 -180 0 0 12.6 116.19 L33.95
								 116.19 A1.48031 1.4502 -180 0 0 34.49 116.19 A10.1102 9.90454 -180 0 0 44.47 106.53 Z" class="st3"/>
				</g>
			</g>
		</g>
	</g>
</svg>

<?xml version="1.0" encoding="UTF-8" standalone="no"?>
<!-- Generated by Microsoft Visio, SVG Export App Service Backup.svg Page-1 -->

<svg
   xmlns:dc="http://purl.org/dc/elements/1.1/"
   xmlns:cc="http://creativecommons.org/ns#"
   xmlns:rdf="http://www.w3.org/1999/02/22-rdf-syntax-ns#"
   xmlns:svg="http://www.w3.org/2000/svg"
   xmlns="http://www.w3.org/2000/svg"
   xmlns:sodipodi="http://sodipodi.sourceforge.net/DTD/sodipodi-0.dtd"
   xmlns:inkscape="http://www.inkscape.org/namespaces/inkscape"
   width="0.78746367in"
   height="0.66942197in"
   viewBox="0 0 56.697292 48.198315"
   xml:space="preserve"
   class="st4"
   version="1.1"
   id="svg54"
   sodipodi:docname="App Service Backup.svg"
   style="font-size:12px;overflow:visible;color-interpolation-filters:sRGB;fill:none;fill-rule:evenodd;stroke-linecap:square;stroke-miterlimit:3"
   inkscape:version="0.92.5 (2060ec1f9f, 2020-04-08)"><metadata
   id="metadata58"><rdf:RDF><cc:Work
       rdf:about=""><dc:format>image/svg+xml</dc:format><dc:type
         rdf:resource="http://purl.org/dc/dcmitype/StillImage" /></cc:Work></rdf:RDF></metadata><sodipodi:namedview
   pagecolor="#ffffff"
   bordercolor="#666666"
   borderopacity="1"
   objecttolerance="10"
   gridtolerance="10"
   guidetolerance="10"
   inkscape:pageopacity="0"
   inkscape:pageshadow="2"
   inkscape:window-width="640"
   inkscape:window-height="480"
   id="namedview56"
   showgrid="false"
   inkscape:zoom="1.5231026"
   inkscape:cx="37.7954"
   inkscape:cy="32.124893"
   inkscape:window-x="0"
   inkscape:window-y="0"
   inkscape:window-maximized="0"
   inkscape:current-layer="svg54" />
	<style
   type="text/css"
   id="style2">
	<![CDATA[
		.st1 {fill:url(#grad0-6);stroke:none;stroke-linecap:butt;stroke-width:34}
		.st2 {fill:#ffffff;stroke:none;stroke-linecap:butt;stroke-width:34}
		.st3 {fill:url(#grad0-12);stroke:none;stroke-linecap:butt;stroke-width:34}
		.st4 {fill:none;fill-rule:evenodd;font-size:12px;overflow:visible;stroke-linecap:square;stroke-miterlimit:3}
	]]>
	</style>

	<defs
   id="Patterns_And_Gradients">
		<linearGradient
   id="grad0-6"
   x1="0"
   y1="102.6491"
   x2="36.220225"
   y2="102.6491"
   gradientTransform="scale(1.1949125,0.83688135)"
   gradientUnits="userSpaceOnUse">
			<stop
   offset="0"
   stop-color="#0078d4"
   stop-opacity="1"
   id="stop4" />
			<stop
   offset="0.16"
   stop-color="#1380da"
   stop-opacity="1"
   id="stop6" />
			<stop
   offset="0.53"
   stop-color="#3c91e5"
   stop-opacity="1"
   id="stop8" />
			<stop
   offset="0.82"
   stop-color="#559cec"
   stop-opacity="1"
   id="stop10" />
			<stop
   offset="1"
   stop-color="#5ea0ef"
   stop-opacity="1"
   id="stop12" />
		</linearGradient>
		<linearGradient
   id="grad0-12"
   x1="0"
   y1="102.28927"
   x2="37.081352"
   y2="102.28927"
   gradientTransform="scale(1.1992551,0.83385096)"
   gradientUnits="userSpaceOnUse">
			<stop
   offset="0"
   stop-color="#198ab3"
   stop-opacity="1"
   id="stop15" />
			<stop
   offset="0.13"
   stop-color="#21a0c7"
   stop-opacity="1"
   id="stop17" />
			<stop
   offset="0.31"
   stop-color="#28b7db"
   stop-opacity="1"
   id="stop19" />
			<stop
   offset="0.5"
   stop-color="#2ec7ea"
   stop-opacity="1"
   id="stop21" />
			<stop
   offset="0.72"
   stop-color="#31d1f2"
   stop-opacity="1"
   id="stop23" />
			<stop
   offset="1"
   stop-color="#32d4f5"
   stop-opacity="1"
   id="stop25" />
		</linearGradient>
	</defs>
	<g
   id="g52"
   transform="translate(-34,-34.000318)">
		<title
   id="title29">Page-1</title>
		<g
   id="group10093-1"
   transform="translate(34,-34.0157)">
			<title
   id="title31">App Service Backup</title>
			<g
   id="group10094-2">
				<title
   id="title33">Sheet.10094</title>
				<g
   id="shape10095-3"
   transform="translate(13.4173,-17.8891)">
					<title
   id="title35">Sheet.10095</title>
					<path
   d="M 43.28,106.64 A 9.73228,9.53428 -180 0 0 34.83,97.39 12.252,12.0027 -180 0 0 22.24,85.91 12.5984,12.3421 -180 0 0 10.2,94.02 11.5906,11.3547 -180 0 0 0,104.98 11.7795,11.5399 -180 0 0 12.19,116.21 h 21.32 a 9.85827,9.6577 -180 0 0 9.77,-9.57 z"
   class="st1"
   id="path37"
   inkscape:connector-curvature="0"
   style="fill:url(#grad0-6);stroke:none;stroke-width:34;stroke-linecap:butt" />
				</g>
				<g
   id="shape10096-7"
   transform="translate(23.2126,-21.962)">
					<title
   id="title40">Sheet.10096</title>
					<path
   d="m 22.11,102.45 -5.76,-5.49 c -0.63,-0.62 -1.17,-0.4 -1.17,0.55 v 2.47 a 0.692913,0.678816 0 0 1 -0.724409,0.67882 C 10.74,100.66 0.38,101.62 0,115.5 a 0.724409,0.709671 -180 0 0 0.724409,0.70967 L 4.41,116.21 A 0.724409,0.709671 -180 0 0 5.134409,115.43862 8.69291,8.51605 0 0 1 14.58,105.16 a 0.724409,0.709671 0 0 1 0.724409,0.70967 L 15.31,108.16 c 0,1.14 0.38,1.32 1.16,0.55 l 5.64,-5.09 a 0.724409,0.709671 -180 0 0 0,-1.1725 z"
   class="st2"
   id="path42"
   inkscape:connector-curvature="0"
   style="fill:#ffffff;stroke:none;stroke-width:34;stroke-linecap:butt" />
				</g>
				<g
   id="shape10097-9">
					<title
   id="title45">Sheet.10097</title>
					<path
   d="M 44.47,106.53 A 9.98425,9.78112 -180 0 0 35.81,97.12 12.5984,12.3421 -180 0 0 22.83,85.3 12.9134,12.6507 -180 0 0 10.49,93.57 11.9055,11.6633 -180 0 0 0,104.8 12.0945,11.8484 -180 0 0 12.6,116.19 h 21.35 a 1.48031,1.4502 -180 0 0 0.54,0 10.1102,9.90454 -180 0 0 9.98,-9.66 z"
   class="st3"
   id="path47"
   inkscape:connector-curvature="0"
   style="fill:url(#grad0-12);stroke:none;stroke-width:34;stroke-linecap:butt" />
				</g>
			</g>
		</g>
	</g>
</svg>
